X: 20655
T: John Stewart
R: reel
M: 4/4
K: Gdorian
DGGA BdcB|AFF2 FdcF|DGGA (3Bcd fd|cAfc AGGF|
DGGA BdcB|AFF2 FdcF|DGGA (3Bcd fd|cAfc AGG2||
g2ga b2ag|fcac gcfc|dgga bgag|fdcA BGG2|
g2ga b2ag|fcfg agfa|g2fg dfcf|AFcA G2GF||

